img/devices.svg

<svg width="100" height="68" viewBox="0 0 100 68" fill="none" xmlns="http://www.w3.org/2000/svg">
<path d="M16.6667 8.99996H91.6667V0.666626H16.6667C12.0833 0.666626 8.33333 4.41663 8.33333 8.99996V54.8333H0V67.3333H58.3333V54.8333H16.6667V8.99996ZM95.8333 17.3333H70.8333C68.5417 17.3333 66.6667 19.2083 66.6667 21.5V63.1666C66.6667 65.4583 68.5417 67.3333 70.8333 67.3333H95.8333C98.125 67.3333 100 65.4583 100 63.1666V21.5C100 19.2083 98.125 17.3333 95.8333 17.3333ZM91.6667 54.8333H75V25.6666H91.6667V54.8333Z" fill="#3077C6"/>
</svg>

<svg width="100" height="68" fill="none" xmlns="http://www.w3.org/2000/svg"><path d="M16.6667 9h75V.6666h-75c-4.5834 0-8.3334 3.75-8.3334 8.3334v45.8333H0v12.5h58.3333v-12.5H16.6667V9zm79.1666 8.3333h-25c-2.2916 0-4.1666 1.875-4.1666 4.1667v41.6666c0 2.2917 1.875 4.1667 4.1666 4.1667h25c2.2917 0 4.1667-1.875 4.1667-4.1667V21.5c0-2.2917-1.875-4.1667-4.1667-4.1667zm-4.1666 37.5H75V25.6666h16.6667v29.1667z" fill="#3077C6"/></svg>
